packages/icons/src/svg/tmc-negative.svg

<svg xmlns="http://www.w3.org/2000/svg" viewBox="0 0 16 16">
  <g fill-rule="evenodd">
    <path d="M12.8482,12.5735 L12.1662,11.8915 L11.8212,12.2365 L12.5022,12.9185 C11.5122,13.8345 10.2452,14.4525 8.8432,14.6365 C8.7242,14.3865 8.5012,14.1975 8.2302,14.1245 L8.2302,12.8865 L7.7412,12.8865 L7.7412,14.1225 C7.4652,14.1945 7.2382,14.3855 7.1192,14.6395 C5.6802,14.4565 4.3842,13.8135 3.3802,12.8635 L4.0772,12.1675 L3.7312,11.8215 L3.0362,12.5155 C2.1342,11.5285 1.5252,10.2685 1.3442,8.8775 C1.6062,8.7605 1.8042,8.5275 1.8762,8.2445 L3.0072,8.2445 L3.0072,7.7565 L1.8732,7.7565 C1.7982,7.4795 1.6022,7.2545 1.3452,7.1375 C1.5292,5.7375 2.1472,4.4715 3.0612,3.4825 L3.7232,4.1435 L4.0682,3.7985 L3.4062,3.1355 C4.4092,2.1965 5.7002,1.5625 7.1312,1.3835 C7.2522,1.6235 7.4722,1.8045 7.7382,1.8755 L7.7382,3.0705 L8.2262,3.0705 L8.2262,1.8755 C8.4912,1.8045 8.7102,1.6245 8.8312,1.3855 C10.2242,1.5655 11.4852,2.1755 12.4732,3.0785 L11.8322,3.7195 L12.1782,4.0655 L12.8212,3.4225 C13.7722,4.4275 14.4152,5.7245 14.5982,7.1655 C14.3672,7.2885 14.1942,7.5045 14.1252,7.7615 L12.9902,7.7695 L12.9902,8.2585 L14.1242,8.2505 C14.1932,8.5105 14.3672,8.7265 14.5992,8.8495 C14.4192,10.2805 13.7862,11.5705 12.8482,12.5735 M15.2012,7.0675 C14.7782,3.7965 12.1892,1.2065 8.9192,0.7815 C8.8382,0.3375 8.4502,0.0005 7.9822,0.0005 C7.5152,0.0005 7.1272,0.3355 7.0452,0.7785 C3.7592,1.1945 1.1562,3.7955 0.7372,7.0795 C0.3152,7.1775 0.0002,7.5555 0.0002,8.0085 C0.0002,8.4595 0.3142,8.8365 0.7362,8.9355 C1.1522,12.2255 3.7592,14.8325 7.0502,15.2465 C7.1422,15.6765 7.5242,15.9985 7.9822,15.9985 C8.4402,15.9985 8.8232,15.6755 8.9142,15.2435 C12.1902,14.8195 14.7832,12.2235 15.2022,8.9475 C15.6552,8.8725 16.0002,8.4805 16.0002,8.0085 C16.0002,7.5335 15.6542,7.1415 15.2012,7.0675"/>
    <path d="M7.9825,9.2122 C7.3035,9.2122 6.7535,8.6612 6.7535,7.9812 C6.7535,7.3042 7.3035,6.7552 7.9825,6.7552 C8.6605,6.7552 9.2115,7.3042 9.2115,7.9812 C9.2115,8.6612 8.6605,9.2122 7.9825,9.2122 M10.1915,7.9952 C10.1915,7.7302 10.1425,7.4762 10.0565,7.2392 L10.8795,6.5112 L9.8175,6.7652 C9.6345,6.4922 9.3915,6.2632 9.1085,6.0942 L9.5475,3.1912 L8.1405,5.7872 C8.0865,5.7832 8.0315,5.7792 7.9755,5.7792 C7.6705,5.7792 7.3795,5.8412 7.1145,5.9532 L6.3765,5.1192 L6.6425,6.2282 C6.4145,6.4002 6.2215,6.6152 6.0735,6.8612 L4.0465,6.7612 L5.7675,7.8332 C5.7635,7.8872 5.7595,7.9412 5.7595,7.9952 C5.7595,8.2352 5.7985,8.4662 5.8695,8.6832 L5.0165,9.4362 L6.1015,9.1752 C6.2885,9.4722 6.5445,9.7212 6.8455,9.9002 L6.8455,9.9012 L6.2605,12.8012 L7.8135,10.2042 C7.8675,10.2082 7.9205,10.2132 7.9755,10.2132 C8.2605,10.2132 8.5315,10.1572 8.7815,10.0592 L9.5055,10.8752 L9.2495,9.8082 C9.5035,9.6282 9.7165,9.3972 9.8775,9.1292 L11.9025,9.2452 L10.1835,8.1542 C10.1875,8.1022 10.1915,8.0492 10.1915,7.9952"/>
    <path d="M7.9825,7.4075 C7.6645,7.4075 7.4055,7.6655 7.4055,7.9825 C7.4055,8.3015 7.6645,8.5595 7.9825,8.5595 C8.3005,8.5595 8.5585,8.3015 8.5585,7.9825 C8.5585,7.6655 8.3005,7.4075 7.9825,7.4075"/>
  </g>
</svg>

<svg xmlns="http://www.w3.org/2000/svg" viewBox="0 0 16 16">
	<g fill-rule="evenodd">
		<path d="M12.848 12.573l-.682-.681-.345.345.681.681a6.658 6.658 0 0 1-3.659 1.719.955.955 0 0 0-.613-.513v-1.238h-.489v1.237a.952.952 0 0 0-.622.517 6.658 6.658 0 0 1-3.739-1.777l.697-.695-.346-.346-.695.694a6.665 6.665 0 0 1-1.692-3.639.95.95 0 0 0 .532-.633h1.131v-.487H1.873a.956.956 0 0 0-.528-.62 6.66 6.66 0 0 1 1.716-3.654l.662.66.345-.344-.662-.663a6.655 6.655 0 0 1 3.725-1.753c.121.24.341.421.607.492v1.196h.488V1.875a.955.955 0 0 0 .605-.49 6.66 6.66 0 0 1 3.642 1.694l-.64.64.345.347.643-.643a6.662 6.662 0 0 1 1.777 3.742.958.958 0 0 0-.473.596l-1.135.008v.49l1.134-.008c.07.26.243.476.475.599a6.664 6.664 0 0 1-1.75 3.723M15.2 7.067A7.294 7.294 0 0 0 8.92.782.953.953 0 0 0 7.045.778 7.295 7.295 0 0 0 .737 7.08a.954.954 0 0 0 0 1.856 7.295 7.295 0 0 0 6.313 6.311.953.953 0 0 0 1.864-.003 7.295 7.295 0 0 0 6.288-6.296.953.953 0 0 0 0-1.88"/>
		<path d="M7.982 9.212a1.227 1.227 0 1 1 0-2.457 1.228 1.228 0 1 1 0 2.457m2.21-1.217a2.21 2.21 0 0 0-.136-.756l.824-.728-1.063.254a2.229 2.229 0 0 0-.709-.67l.44-2.904L8.14 5.787a2.207 2.207 0 0 0-1.026.166l-.737-.834.266 1.11a2.237 2.237 0 0 0-.57.632l-2.027-.1 1.721 1.072a2.208 2.208 0 0 0 .102.85l-.853.753 1.085-.26c.188.296.444.545.745.724v.001l-.585 2.9 1.553-2.597c.053.004.106.01.162.01.285 0 .555-.057.805-.155l.724.816-.256-1.067c.255-.18.467-.41.628-.679l2.025.116-1.718-1.09c.004-.053.008-.106.008-.16"/>
		<path d="M7.982 7.407a.577.577 0 1 0 0 1.154.577.577 0 0 0 0-1.154"/>
	</g>
</svg>
